X:1
T:Reiouyssons nous
T:Reiouyssons nous
T:Ciprianus de Rore
C:Ciprianus de Rore
%%score [ 1 [ 2 3 ] 4 ]
L:1/8
Q:1/4=82
M:2/2
K:F
V:1 treble nm="Superius" snm="S"
V:2 treble-8 nm="Tenor 1" snm="T 1"
V:3 treble-8 nm="Tenor 2" snm="T 2"
V:4 bass nm="Bassus" snm="B"
V:1
 z8 | z4 FEFG | A2 B2 A2 GF | E2 AA G2 F2 | F2 E2 F4- | F4 z4 | z8 | z8 | z8 | F2 FG A2 B2 | %10
w: |Re- jou- ys- sons|nous a cest heu- *|re, en ce jo- ly|moys de may,|_||||le ros- si- gnol de|
 A2 GF E2 A2 | G2 F2 F2 E2 | F8 | z4 c4 | B2 A2 G4 | z2 F4 E2 | D4 C4 | z2 G2 B2 B2 | A2 A2 G4 | %19
w: meu- * * * re'au|bois, chan- tant si|gay,|sans|quel- que lay,|sans quel-|que lay,|j'i- ray ou-|ir chan- ter,|
 z8 | z4 z2 G2 | A3 A A2 BB | A2 GF E2 AA | G2 F3 E E2 | F4 z4 | z2 F2 A3 A | A2 BB A2 GF | %27
w: |et|veoir la bel- le fi-|gu- * * re que je|veulx _ _ ay-|mer,|et veoir la|bel- le fi- gu- * *|
 E2 AA G2 F2- | FE E2 F4- | F8- | F8- | F8- | F8- | F8 |] %34
w: re que je veulx _|_ _ ay- mer.|_|||||
V:2
 FEFG AG AB | c2 d2 c2 B2 | z4 cBcd | ee f2 ddcc | d2 c2 A4 | z4 c2 cd | e2 f2 ed cB | %7
w: Re- jou- ys- sons nous _ _ _|a cest heu- re,|en ce jo- ly|moys de may, [en ce jo- ly|moys de may,]|le ros- si-|gnol de- meu- * * *|
 c2 A3 G/F/ G2 | FG AB c3 B | c2 d2 c2 G2 | c3 d e2 f2 | d4 c2 c2- | cB A4 GF | GF f4 e2 | %14
w: |au _ _ _ bois _|_ chan- tant _|_ _ _ si|gay, sans quel-|* que lay _ _|_ _ sans quel-|
 d2 c3 B G2 | A2 B2 c4 | z2 d2 f2 f2 | e2 e2 d2 G2 | AG AB cA Bc | de d3 c c2- | %20
w: que lay, _ _|_ _ _|j'i- ray ou-|ir chan- ter, j'i-|ray _ _ _ _ _ _ _|_ _ ou- * ir|
"^-natural" c2 B2 c2 e2 | f3 f f F2 G | AB cd e2 fe | d2 c2 d2 c2 | A4 z4 | z4 z2 c2 | f3 f f2 ff | %27
w: _ chan- ter, et|veoir la bel- le fi-|gu- * * * re que je|veulx _ _ ay-|mer,|et|veoir la bel- le fi-|
 g2 f2 e2 c2 | d2 c2 A4- | A2 GF F4 | z2 F2 c3 c | c2 dd c2 A2 | B2 c2 d2 d2 | c8 |] %34
w: gu- re que je|veulx ay- mer,|_ _ _ _|et veoir la|bel- le fi- gu- re|que je veulx ay-|mer.|
V:3
 z4 FEFG | AG AB c2 d2 | c2 B2 c2 F2 | z2 cc B2 A2 | G2 G2 F4- | F4 z4 | z8 | F2 FG A2 B2 | %8
w: Re- jou- ys- sons|nous _ _ _ _ a|cest _ heu- re,|en ce jo- ly|moys de may,|_||le ros- si- gnol de-|
 A2 GF E2 A2 | GF F4 E2 | F2 c3 G c2 | B3 A G4 | F4 z2 c2- | c2 B2 A2 GA | BA/B/ c2 z2 c2- | %15
w: meu- * * re au|bois chan- tant si|gay, chan- tant si|_ _ _|gay, sans|_ quel- que lay _|_ _ _ _ sans|
 c2 B2 A2 GG | B2 B2 A2 A2 | G4 z2 d2 | f2 f2 e2 e2 | d2 f3 e c2 | d4 c2 c2 | c3 c d2 dd | %22
w: _ quel- que lay, j'i-|ray ou- ir chan-|ter, j'i-|ray ou- ir chan-||* ter, et|veoir la bel- le fi-|
 c2 A2 c3 c | B2 A2 G4 | F2 A2 c3 c | c2 dd c3 B | A2 F2 A2 B2 | c2 F2 B2 A2 | G4 F2 F2 | %29
w: gu- * re que|je veulx ay-|mer, et veoir la|be- le fi- gu- *|* re que je|veulx ay- * *|* mer, et|
 c3 c c2 dd | c3 B A2 F2 | A2 B2 c4 | F3 G/A/ B4 | A8 |] %34
w: veoir la bel- le fi-|gu- * * re|que je veulx|ay- * * *|mer.|
V:4
 z8 | F,E,F,G, A,2 B,2 | A,2 G,2 F,3 E,/D,/ | C,2 F,,F,, G,,2 A,,2 | B,,2 C,2 F,,4 | %5
w: |Re- jou- ys- sons nous a|cest heu- * * *|re, en ce jo- ly|moys de may,|
 F,2 F,G, A,3 B, | A,2 G,F, G,2 A,2 | A,G, F,4 E,2 | F,3 E,/D,/ C,B,, A,,G,, | %9
w: le ros- si- gnol de-|meu- * * * re'au|bois chan- tant si|gay _ _ _ _ _ _|
 A,,2 B,,2 A,,G,,/F,,/ G,,2 | F,,G,,A,,B,, C,2 A,,2 | B,,4 C,4 | F,,4 F,4 | E,2 D,2 C,4 | %14
w: _ _ _ _ _ _|||* sans|quel- que lay,|
 z2 F,4 E,2 | D,4 C,4 | B,,3 A,, F,,G,,A,,B,, | C,D, E,F, G,4 | z4 z2 G,2 | B,2 B,2 A,2 A,2 | %20
w: sans quel-|que lay,|_ _ _ _ _ _||j'i-|ray ou- ir chan-|
 G,4 z2 C,2 | F,3 E, D,C, B,,2 | F,3 E,/D,/ C,2 F,,2 | G,,2 A,,2 B,,2 C,2 | F,,2 F,2 A,3 A, | %25
w: ter et|veoir la bel- le fi-|gu- * * re que|je veulx ay- *|mer, et veoir la|
 A,2 B,B, A,3 G, | F,2 B,,2 F,3 E,/D,/ | C,2 D,2 E,2 F,2 | B,,2 C,2 F,,4- | F,,4 z2 B,,2 | %30
w: be- le fi- gu- *|||* * re,|_ et|
 F,3 F, F,2 F,G, | F,2 B,,2 F,3 E, | D,2 C,2 B,,4 | F,,8 |] %34
w: veoir la be- le fi-|gu- re que le|veulx ay- *|mer.|

